Pods/ProtonCore-UIFoundations/libraries/UIFoundations/Sources/Assets.xcassets/Images/IconSet/ic-text-bold.imageset/ic-text-bold.svg

<svg width="24" height="24" viewBox="0 0 24 24" fill="none" xmlns="http://www.w3.org/2000/svg">
<path fill-rule="evenodd" clip-rule="evenodd" d="M3.00073 2.85391C3.00073 2.10832 3.60515 1.50391 4.35073 1.50391H13.1748C16.236 1.50391 18.7177 3.98558 18.7177 7.04687C18.7177 8.50236 18.1567 9.82683 17.2392 10.8158C19.0449 11.9249 20.2491 13.9181 20.2491 16.1925C20.2491 19.6749 17.4261 22.4979 13.9438 22.4979H4.35073C3.60515 22.4979 3.00073 21.8934 3.00073 21.1479C3.00073 20.4023 3.60515 19.7979 4.35073 19.7979H5.2976V4.20391H4.35073C3.60515 4.20391 3.00073 3.59949 3.00073 2.85391ZM7.9976 4.20391V9.88721H13.2982C14.8111 9.82256 16.0177 8.57563 16.0177 7.04687C16.0177 5.47675 14.7449 4.20391 13.1748 4.20391H7.9976ZM7.9976 12.5898V19.7979H13.9438C15.935 19.7979 17.5491 18.1837 17.5491 16.1925C17.5491 14.2014 15.935 12.5872 13.9438 12.5872H13.3472C13.2899 12.589 13.2325 12.5898 13.1748 12.5898H7.9976Z" fill="#0C0C14"/>
</svg>

<svg xmlns="http://www.w3.org/2000/svg" width="24" height="24" viewBox="0 0 24 24">
  <g class="ic-text-bold">
    <path fill-rule="evenodd" d="M3 2.854c0-.746.604-1.35 1.35-1.35h8.824a5.543 5.543 0 0 1 4.064 9.312 6.305 6.305 0 0 1-3.295 11.682H4.35a1.35 1.35 0 0 1 0-2.7h.947V4.204H4.35A1.35 1.35 0 0 1 3 2.854Zm4.997 1.35v5.683h5.3a2.843 2.843 0 0 0-.123-5.683H7.997Zm0 8.386v7.208h5.946a3.605 3.605 0 0 0 0-7.21h-.596a5.494 5.494 0 0 1-.173.002H7.997Z" class="Icon"/>
  </g>
</svg>
